X:793
T:Reel 793
L:1/8
M: 4/4
K: G Major
GFGBAGAB|cBABcdef|gedBAGAB|AGEGc2cA|GFGBAGAB|cBABcdef|gedBG2AB|cedcBGGG|gfdadfdd|ffdadfdd|ffdadfdd|feaafg2z|zfdadfdd|ffdadfdd|fgbegb2a|gfdcABGG|.abc